;Generated by Cura LulzBot Edition GCodeWriter Version: 3.6.20
;FLAVOR:Marlin
;TIME:26739
;Filament used: 14.6773m
;Layer height: 0.18
;Generated with Cura_SteamEngine 3.6.20
M82 ;absolute extrusion mode
;This G-Code has been generated specifically for the LulzBot TAZ 6 with standard extruder
M73 P0 ; clear GLCD progress bar
M75 ; start GLCD timer
G26 ; clear potential 'probe fail' condition
M107 ; disable fans
M420 S0 ; disable previous leveling matrix
G90 ; absolute positioning
M82 ; set extruder to absolute mode
G92 E0 ; set extruder position to 0
M140 S60.0 ; start bed heating up
M109 R140 ; soften filament before homing Z
G28 ; Home all axis
G1 E-30 F100 ; retract filament
M109 R140 ; wait for extruder to reach wiping temp
G1 X-15 Y100 F3000 ; move above wiper pad
G1 Z1 ; push nozzle into wiper
G1 X-17 Y95 F1000 ; slow wipe
G1 X-17 Y90 F1000 ; slow wipe
G1 X-17 Y85 F1000 ; slow wipe
G1 X-15 Y90 F1000 ; slow wipe
G1 X-17 Y80 F1000 ; slow wipe
G1 X-15 Y95 F1000 ; slow wipe
G1 X-17 Y75 F2000 ; fast wipe
G1 X-15 Y65 F2000 ; fast wipe
G1 X-17 Y70 F2000 ; fast wipe
G1 X-15 Y60 F2000 ; fast wipe
G1 X-17 Y55 F2000 ; fast wipe
G1 X-15 Y50 F2000 ; fast wipe
G1 X-17 Y40 F2000 ; fast wipe
G1 X-15 Y45 F2000 ; fast wipe
G1 X-17 Y35 F2000 ; fast wipe
G1 X-15 Y40 F2000 ; fast wipe
G1 X-17 Y70 F2000 ; fast wipe
G1 X-15 Y30 Z2 F2000 ; fast wipe
G1 X-17 Y35 F2000 ; fast wipe
G1 X-15 Y25 F2000 ; fast wipe
G1 X-17 Y30 F2000 ; fast wipe
G1 X-15 Y25 Z1.5 F1000 ; slow wipe
G1 X-17 Y23 F1000 ; slow wipe
G1 Z10 ; raise extruder
M109 R140 ; wait for extruder to reach probe temp
G1 X-9 Y-9 ; move above first probe point
M204 S100 ; set probing acceleration
G29 ; start auto-leveling sequence
M420 S1 ; activate bed level matrix
M425 Z			     ; use measured Z backlash for compensation
M425 Z F0		     ; turn off measured Z backlash compensation. (if activated in the quality settings, this command will automatically be ignored)
M204 S500 ; restore standard acceleration
G1 X0 Y0 Z15 F5000 ; move up off last probe point
G4 S1 ; pause
M400 ; wait for moves to finish
M117 Heating... ; progress indicator message on LCD
M109 R210 ; wait for extruder to reach printing temp
M190 R60.0 ; wait for bed to reach printing temp
G1 Z2 E0 F75 ; prime tiny bit of filament into the nozzle
M117 TAZ 6 Printing... ; progress indicator message on LCD

M221 S100 T0
G92 E0
G1 F600 E-1.75
;LAYER_COUNT:39
;LAYER:0
M107
G0 F2625 X75.963 Y40.82 Z0.425
;TYPE:SKIRT
G1 F600 E0
G1 F900 X76.243 Y40.33 E0.0188
G1 X76.747 Y39.603 E0.04827
G1 X77.109 Y39.168 E0.06712
G1 X77.714 Y38.557 E0.09576
G1 X78.145 Y38.192 E0.11457
G1 X78.854 Y37.69 E0.14351
G1 X79.344 Y37.403 E0.16243
G1 X80.136 Y37.029 E0.1916
G1 X80.668 Y36.833 E0.21049
G1 X81.503 Y36.605 E0.23932
G1 X82.062 Y36.504 E0.25824
G1 X82.934 Y36.424 E0.28741
G1 X83.232 Y36.41 E0.29735
G1 X198.738 Y36.445 E4.14489
G1 X199.355 Y36.504 E4.16554
G1 X200.264 Y36.68 E4.19638
G1 X200.812 Y36.838 E4.21538
G1 X201.574 Y37.131 E4.24257
G1 X202.076 Y37.375 E4.26117
G1 X202.842 Y37.833 E4.29089
G1 X203.305 Y38.168 E4.30993
G1 X203.967 Y38.743 E4.33914
G1 X204.363 Y39.153 E4.35813
G1 X204.9 Y39.817 E4.38657
G1 X205.214 Y40.283 E4.40529
G1 X205.634 Y41.039 E4.4341
G1 X205.861 Y41.546 E4.4526
G1 X206.134 Y42.328 E4.48019
G1 X206.273 Y42.873 E4.49893
G1 X206.421 Y43.775 E4.52938
G1 X206.464 Y44.301 E4.54696
G1 X206.491 Y234.609 E10.88618
G1 X206.479 Y234.882 E10.89529
G1 X206.405 Y235.759 E10.9246
G1 X206.312 Y236.307 E10.94312
G1 X206.09 Y237.157 E10.97238
G1 X205.897 Y237.696 E10.99145
G1 X205.539 Y238.473 E11.01995
G1 X205.257 Y238.965 E11.03884
G1 X204.752 Y239.693 E11.06835
G1 X204.391 Y240.128 E11.08718
G1 X203.786 Y240.739 E11.11582
G1 X203.355 Y241.104 E11.13464
G1 X202.646 Y241.606 E11.16357
G1 X202.154 Y241.893 E11.18255
G1 X201.361 Y242.267 E11.21175
G1 X200.832 Y242.463 E11.23055
G1 X199.998 Y242.691 E11.25935
G1 X199.438 Y242.792 E11.2783
G1 X198.566 Y242.872 E11.30747
G1 X198.268 Y242.886 E11.31741
G1 X82.762 Y242.851 E15.16495
G1 X82.145 Y242.792 E15.1856
G1 X81.236 Y242.616 E15.21644
G1 X80.688 Y242.458 E15.23544
G1 X79.926 Y242.165 E15.26263
G1 X79.424 Y241.921 E15.28123
G1 X78.658 Y241.463 E15.31095
G1 X78.195 Y241.128 E15.32999
G1 X77.533 Y240.553 E15.3592
G1 X77.137 Y240.143 E15.37819
G1 X76.6 Y239.479 E15.40663
G1 X76.287 Y239.014 E15.4253
G1 X75.865 Y238.255 E15.45423
G1 X75.634 Y237.74 E15.47303
G1 X75.359 Y236.946 E15.50102
G1 X75.201 Y236.248 E15.52486
G1 X75.011 Y234.571 E15.58108
G1 X74.994 Y234.358 E15.5882
G1 X74.783 Y229.876 E15.73766
G1 X74.232 Y224.402 E15.92092
G1 X73.421 Y219.204 E16.09616
G1 X73.382 Y218.693 E16.11324
G1 X73.429 Y203.49 E16.61966
G1 X73.467 Y203.006 E16.63583
G1 X74.231 Y198.036 E16.80332
G1 X74.77 Y192.539 E16.98731
G1 X74.918 Y189.844 E17.07722
G1 X75 Y185.879 E17.20932
G1 X75.009 Y44.687 E21.91248
G1 X75.021 Y44.414 E21.92158
G1 X75.095 Y43.537 E21.9509
G1 X75.188 Y42.989 E21.96941
G1 X75.41 Y42.139 E21.99867
G1 X75.604 Y41.598 E22.01782
G1 X75.963 Y40.82 E22.04636
G1 F600 E20.29636
G0 F2625 X77.623 Y44.6
G0 X77.64 Y44.64
G0 X84.489 Y60.236
G0 X84.506 Y60.276
G0 X85 Y61.398
;TYPE:SUPPORT
G1 F600 E22.04636
G1 F900 X196.5 Y61.398 E25.76047
G1 X196.5 Y217.898 E30.97354
G1 X85 Y217.898 E34.68764
G1 X85 Y61.398 E39.90071
G0 F2625 X85.2 Y61.679
G1 F900 X196.3 Y61.679 E43.6015
G1 F600 E41.8515
G0 F2625 X195.039 Y61.598
G1 F600 E43.6015
G1 F900 X195.039 Y217.698 E48.80124
G1 F600 E47.05124
G0 F2625 X196.3 Y216.71
G1 F600 E48.80124
G1 F900 X85.199 Y216.71 E52.50206
G1 F600 E50.75206
G0 F2625 X85.199 Y215.043
G1 F600 E52.50206
G1 F900 X196.3 Y215.043 E56.20287
G1 F600 E54.45287
G0 F2625 X196.3 Y213.376
G1 F600 E56.20287
G1 F900 X85.199 Y213.376 E59.90369
G1 F600 E58.15369
G0 F2625 X85.199 Y211.709
G1 F600 E59.90369
G1 F900 X196.3 Y211.709 E63.6045
G1 F600 E61.8545
G0 F2625 X196.3 Y210.042
G1 F600 E63.6045
G1 F900 X85.199 Y210.042 E67.30531
G1 F600 E65.55531
G0 F2625 X85.199 Y208.375
G1 F600 E67.30531
G1 F900 X196.3 Y208.375 E71.00613
G1 F600 E69.25613
G0 F2625 X196.3 Y206.708
G1 F600 E71.00613
G1 F900 X85.199 Y206.708 E74.70694
G1 F600 E72.95694
G0 F2625 X85.199 Y205.041
G1 F600 E74.70694
G1 F900 X196.3 Y205.041 E78.40776
G1 F600 E76.65776
G0 F2625 X196.3 Y203.374
G1 F600 E78.40776
G1 F900 X85.199 Y203.374 E82.10857
G1 F600 E80.35857
G0 F2625 X85.199 Y201.707
G1 F600 E82.10857
G1 F900 X196.3 Y201.707 E85.80939
G1 F600 E84.05939
G0 F2625 X196.3 Y200.04
G1 F600 E85.80939
G1 F900 X85.199 Y200.04 E89.5102
G1 F600 E87.7602
G0 F2625 X85.199 Y198.373
G1 F600 E89.5102
G1 F900 X196.3 Y198.373 E93.21101
G1 F600 E91.46101
G0 F2625 X196.3 Y196.706
G1 F600 E93.21101
G1 F900 X85.199 Y196.706 E96.91183
G1 F600 E95.16183
G0 F2625 X85.199 Y195.039
G1 F600 E96.91183
G1 F900 X196.3 Y195.039 E100.61264
G1 F600 E98.86264
G0 F2625 X196.3 Y193.372
G1 F600 E100.61264
G1 F900 X85.199 Y193.372 E104.31346
G1 F600 E102.56346
G0 F2625 X85.199 Y191.705
G1 F600 E104.31346
G1 F900 X196.3 Y191.705 E108.01427
G1 F600 E106.26427
G0 F2625 X196.3 Y190.038
G1 F600 E108.01427
G1 F900 X85.199 Y190.038 E111.71509
G1 F600 E109.96509
G0 F2625 X85.199 Y188.371
G1 F600 E111.71509
G1 F900 X196.3 Y188.371 E115.4159
G1 F600 E113.6659
G0 F2625 X196.3 Y186.704
G1 F600 E115.4159
G1 F900 X85.199 Y186.704 E119.11672
G1 F600 E117.36672
G0 F2625 X85.199 Y185.037
G1 F600 E119.11672
G1 F900 X196.3 Y185.037 E122.81753
G1 F600 E121.06753
G0 F2625 X196.3 Y183.37
G1 F600 E122.81753
G1 F900 X85.199 Y183.37 E126.51834
G1 F600 E124.76834
G0 F2625 X85.199 Y181.703
G1 F600 E126.51834
G1 F900 X196.3 Y181.703 E130.21916
G1 F600 E128.46916
G0 F2625 X196.3 Y180.036
G1 F600 E130.21916
G1 F900 X85.199 Y180.036 E133.91997
G1 F600 E132.16997
G0 F2625 X85.199 Y178.369
G1 F600 E133.91997
G1 F900 X196.3 Y178.369 E137.62079
G1 F600 E135.87079
G0 F2625 X196.3 Y176.702
G1 F600 E137.62079
G1 F900 X85.199 Y176.702 E141.3216
G1 F600 E139.5716
G0 F2625 X85.199 Y175.035
G1 F600 E141.3216
G1 F900 X196.3 Y175.035 E145.02242
G1 F600 E143.27242
G0 F2625 X196.3 Y173.368
G1 F600 E145.02242
G1 F900 X85.199 Y173.368 E148.72323
G1 F600 E146.97323
G0 F2625 X85.199 Y171.701
G1 F600 E148.72323
G1 F900 X196.3 Y171.701 E152.42404
G1 F600 E150.67404
G0 F2625 X196.3 Y170.034
G1 F600 E152.42404
G1 F900 X85.199 Y170.034 E156.12486
G1 F600 E154.37486
G0 F2625 X85.199 Y168.367
G1 F600 E156.12486
G1 F900 X196.3 Y168.367 E159.82567
G1 F600 E158.07567
G0 F2625 X196.3 Y166.7
G1 F600 E159.82567
G1 F900 X85.199 Y166.7 E163.52649
G1 F600 E161.77649
G0 F2625 X85.199 Y165.033
G1 F600 E163.52649
G1 F900 X196.3 Y165.033 E167.2273
G1 F600 E165.4773
G0 F2625 X196.3 Y163.366
G1 F600 E167.2273
G1 F900 X85.199 Y163.366 E170.92812
G1 F600 E169.17812
G0 F2625 X85.199 Y161.699
G1 F600 E170.92812
G1 F900 X196.3 Y161.699 E174.62893
G1 F600 E172.87893
G0 F2625 X196.3 Y160.032
G1 F600 E174.62893
G1 F900 X85.199 Y160.032 E178.32975
G1 F600 E176.57975
G0 F2625 X85.199 Y158.365
G1 F600 E178.32975
G1 F900 X196.3 Y158.365 E182.03056
G1 F600 E180.28056
G0 F2625 X196.3 Y156.698
G1 F600 E182.03056
G1 F900 X85.199 Y156.698 E185.73137
G1 F600 E183.98137
G0 F2625 X85.199 Y155.031
G1 F600 E185.73137
G1 F900 X196.3 Y155.031 E189.43219
G1 F600 E187.68219
G0 F2625 X196.3 Y153.364
G1 F600 E189.43219
G1 F900 X85.199 Y153.364 E193.133
G1 F600 E191.383
G0 F2625 X85.199 Y151.697
G1 F600 E193.133
G1 F900 X196.3 Y151.697 E196.83382
G1 F600 E195.08382
G0 F2625 X196.3 Y150.03
G1 F600 E196.83382
G1 F900 X85.199 Y150.03 E200.53463
G1 F600 E198.78463
G0 F2625 X85.199 Y148.363
G1 F600 E200.53463
G1 F900 X196.3 Y148.363 E204.23545
G1 F600 E202.48545
G0 F2625 X196.3 Y146.696
G1 F600 E204.23545
G1 F900 X85.199 Y146.696 E207.93626
G1 F600 E206.18626
G0 F2625 X85.199 Y145.029
G1 F600 E207.93626
G1 F900 X196.3 Y145.029 E211.63707
G1 F600 E209.88707
G0 F2625 X196.3 Y143.362
G1 F600 E211.63707
G1 F900 X85.199 Y143.362 E215.33789
G1 F600 E213.58789
G0 F2625 X85.199 Y141.695
G1 F600 E215.33789
G1 F900 X196.3 Y141.695 E219.0387
G1 F600 E217.2887
G0 F2625 X196.3 Y140.028
G1 F600 E219.0387
G1 F900 X85.199 Y140.028 E222.73952
G1 F600 E220.98952
G0 F2625 X85.199 Y138.361
G1 F600 E222.73952
G1 F900 X196.3 Y138.361 E226.44033
G1 F600 E224.69033
G0 F2625 X196.3 Y136.694
G1 F600 E226.44033
G1 F900 X85.199 Y136.694 E230.14115
G1 F600 E228.39115
G0 F2625 X85.199 Y135.027
G1 F600 E230.14115
G1 F900 X196.3 Y135.027 E233.84196
G1 F600 E232.09196
G0 F2625 X196.3 Y133.36
G1 F600 E233.84196
G1 F900 X85.199 Y133.36 E237.54277
G1 F600 E235.79277
G0 F2625 X85.199 Y131.693
G1 F600 E237.54277
G1 F900 X196.3 Y131.693 E241.24359
G1 F600 E239.49359
G0 F2625 X196.3 Y130.026
G1 F600 E241.24359
G1 F900 X85.199 Y130.026 E244.9444
G1 F600 E243.1944
G0 F2625 X85.199 Y128.359
G1 F600 E244.9444
G1 F900 X196.3 Y128.359 E248.64522
G1 F600 E246.89522
G0 F2625 X196.3 Y126.692
G1 F600 E248.64522
G1 F900 X85.199 Y126.692 E252.34603
G1 F600 E250.59603
G0 F2625 X85.199 Y125.025
G1 F600 E252.34603
G1 F900 X196.3 Y125.025 E256.04685
G1 F600 E254.29685
G0 F2625 X196.3 Y123.358
G1 F600 E256.04685
G1 F900 X85.199 Y123.358 E259.74766
G1 F600 E257.99766
G0 F2625 X85.199 Y121.691
G1 F600 E259.74766
G1 F900 X196.3 Y121.691 E263.44848
G1 F600 E261.69848
G0 F2625 X196.3 Y120.024
G1 F600 E263.44848
G1 F900 X85.199 Y120.024 E267.14929
G1 F600 E265.39929
G0 F2625 X85.2 Y118.357
G1 F600 E267.14929
G1 F900 X196.3 Y118.357 E270.85007
G1 F600 E269.10007
G0 F2625 X196.3 Y116.69
G1 F600 E270.85007
G1 F900 X85.2 Y116.69 E274.55085
G1 F600 E272.80085
G0 F2625 X85.2 Y115.023
G1 F600 E274.55085
G1 F900 X196.3 Y115.023 E278.25163
G1 F600 E276.50163
G0 F2625 X196.3 Y113.356
G1 F600 E278.25163
G1 F900 X85.2 Y113.356 E281.95241
G1 F600 E280.20241
G0 F2625 X85.2 Y111.689
G1 F600 E281.95241
G1 F900 X196.3 Y111.689 E285.6532
G1 F600 E283.9032
G0 F2625 X196.3 Y110.022
G1 F600 E285.6532
G1 F900 X85.2 Y110.022 E289.35398
G1 F600 E287.60398
G0 F2625 X85.2 Y108.355
G1 F600 E289.35398
G1 F900 X196.3 Y108.355 E293.05476
G1 F600 E291.30476
G0 F2625 X196.3 Y106.688
G1 F600 E293.05476
G1 F900 X85.2 Y106.688 E296.75554
G1 F600 E295.00554
G0 F2625 X85.2 Y105.021
G1 F600 E296.75554
G1 F900 X196.3 Y105.021 E300.45632
G1 F600 E298.70632
G0 F2625 X196.3 Y103.354
G1 F600 E300.45632
G1 F900 X85.2 Y103.354 E304.1571
G1 F600 E302.4071
G0 F2625 X85.2 Y101.687
G1 F600 E304.1571
G1 F900 X196.3 Y101.687 E307.85788
G1 F600 E306.10788
G0 F2625 X196.3 Y100.02
G1 F600 E307.85788
G1 F900 X85.2 Y100.02 E311.55866
G1 F600 E309.80866
G0 F2625 X85.2 Y98.353
G1 F600 E311.55866
G1 F900 X196.3 Y98.353 E315.25944
G1 F600 E313.50944
G0 F2625 X196.3 Y96.686
G1 F600 E315.25944
G1 F900 X85.2 Y96.686 E318.96022
G1 F600 E317.21022
G0 F2625 X85.2 Y95.019
G1 F600 E318.96022
G1 F900 X196.3 Y95.019 E322.66101
G1 F600 E320.91101
G0 F2625 X196.3 Y93.352
G1 F600 E322.66101
G1 F900 X85.2 Y93.352 E326.36179
G1 F600 E324.61179
G0 F2625 X85.2 Y91.685
G1 F600 E326.36179
G1 F900 X196.3 Y91.685 E330.06257
G1 F600 E328.31257
G0 F2625 X196.3 Y90.018
G1 F600 E330.06257
G1 F900 X85.2 Y90.018 E333.76335
G1 F600 E332.01335
G0 F2625 X85.2 Y88.351
G1 F600 E333.76335
G1 F900 X196.3 Y88.351 E337.46413
G1 F600 E335.71413
G0 F2625 X196.3 Y86.684
G1 F600 E337.46413
G1 F900 X85.2 Y86.684 E341.16491
G1 F600 E339.41491
G0 F2625 X85.2 Y85.017
G1 F600 E341.16491
G1 F900 X196.3 Y85.017 E344.86569
G1 F600 E343.11569
G0 F2625 X196.3 Y83.35
G1 F600 E344.86569
G1 F900 X85.2 Y83.35 E348.56647
G1 F600 E346.81647
G0 F2625 X85.2 Y81.683
G1 F600 E348.56647
G1 F900 X196.3 Y81.683 E352.26725
G1 F600 E350.51725
G0 F2625 X196.3 Y80.016
G1 F600 E352.26725
G1 F900 X85.2 Y80.016 E355.96804
G1 F600 E354.21804
G0 F2625 X85.2 Y78.349
G1 F600 E355.96804
G1 F900 X196.3 Y78.349 E359.66882
G1 F600 E357.91882
G0 F2625 X196.3 Y76.682
G1 F600 E359.66882
G1 F900 X85.2 Y76.682 E363.3696
G1 F600 E361.6196
G0 F2625 X85.2 Y75.015
G1 F600 E363.3696
G1 F900 X196.3 Y75.015 E367.07038
G1 F600 E365.32038
G0 F2625 X196.3 Y73.348
G1 F600 E367.07038
G1 F900 X85.2 Y73.348 E370.77116
G1 F600 E369.02116
G0 F2625 X85.2 Y71.681
G1 F600 E370.77116
G1 F900 X196.3 Y71.681 E374.47194
G1 F600 E372.72194
G0 F2625 X196.3 Y70.014
G1 F600 E374.47194
G1 F900 X85.2 Y70.014 E378.17272
G1 F600 E376.42272
G0 F2625 X85.2 Y68.347
G1 F600 E378.17272
G1 F900 X196.3 Y68.347 E381.8735
G1 F600 E380.1235
G0 F2625 X196.3 Y66.68
G1 F600 E381.8735
G1 F900 X85.2 Y66.68 E385.57428
G1 F600 E383.82428
G0 F2625 X85.2 Y65.013
G1 F600 E385.57428
G1 F900 X196.3 Y65.013 E389.27506
G1 F600 E387.52506
G0 F2625 X196.3 Y63.346
G1 F600 E389.27506
G1 F900 X85.2 Y63.346 E392.97585
G1 F600 E391.22585
G0 F2625 X86.684 Y61.598
G1 F600 E392.97585
G1 F900 X86.684 Y217.698 E398.17559
G1 F600 E396.42559
G0 F2625 X88.351 Y217.698
G1 F600 E398.17559
G1 F900 X88.351 Y61.598 E403.37534
G1 F600 E401.62534
G0 F2625 X90.018 Y61.598
G1 F600 E403.37534
G1 F900 X90.018 Y217.698 E408.57509
G1 F600 E406.82509
G0 F2625 X91.685 Y217.698
G1 F600 E408.57509
G1 F900 X91.685 Y61.598 E413.77483
G1 F600 E412.02483
G0 F2625 X93.352 Y61.598
G1 F600 E413.77483
G1 F900 X93.352 Y217.698 E418.97458
G1 F600 E417.22458
G0 F2625 X95.019 Y217.698
G1 F600 E418.97458
G1 F900 X95.019 Y61.598 E424.17433
G1 F600 E422.42433
G0 F2625 X96.686 Y61.598
G1 F600 E424.17433
G1 F900 X96.686 Y217.698 E429.37408
G1 F600 E427.62408
G0 F2625 X98.353 Y217.698
G1 F600 E429.37408
G1 F900 X98.353 Y61.598 E434.57382
G1 F600 E432.82382
G0 F2625 X100.02 Y61.598
G1 F600 E434.57382
G1 F900 X100.02 Y217.698 E439.77357
G1 F600 E438.02357
G0 F2625 X101.687 Y217.698
G1 F600 E439.77357
G1 F900 X101.687 Y61.598 E444.97332
G1 F600 E443.22332
G0 F2625 X103.354 Y61.598
G1 F600 E444.97332
G1 F900 X103.354 Y217.698 E450.17307
G1 F600 E448.42307
G0 F2625 X105.021 Y217.698
G1 F600 E450.17307
G1 F900 X105.021 Y61.598 E455.37281
G1 F600 E453.62281
G0 F2625 X106.688 Y61.598
G1 F600 E455.37281
G1 F900 X106.688 Y217.698 E460.57256
G1 F600 E458.82256
G0 F2625 X108.355 Y217.698
G1 F600 E460.57256
G1 F900 X108.355 Y61.598 E465.77231
G1 F600 E464.02231
G0 F2625 X110.022 Y61.598
G1 F600 E465.77231
G1 F900 X110.022 Y217.698 E470.97205
G1 F600 E469.22205
G0 F2625 X111.689 Y217.698
G1 F600 E470.97205
G1 F900 X111.689 Y61.598 E476.1718
